public/img/twitterIcon.svg

<svg width="37" height="38" viewBox="0 0 37 38" fill="none" xmlns="http://www.w3.org/2000/svg">
<g id="Social Media / Small / Dark / Twitter">
<path id="Oval" d="M18.2578 37.1299C28.337 37.1299 36.5078 28.9591 36.5078 18.8799C36.5078 8.80069 28.337 0.629883 18.2578 0.629883C8.17862 0.629883 0.0078125 8.80069 0.0078125 18.8799C0.0078125 28.9591 8.17862 37.1299 18.2578 37.1299Z" fill="#015F26"/>
<path id="Shape" d="M30.4607 13.7038C29.6787 14.0506 28.8374 14.2852 27.9551 14.3899C28.8559 13.8502 29.5472 12.9963 29.8735 11.977C29.0306 12.477 28.0966 12.8398 27.1034 13.0353C26.3077 12.1878 25.1739 11.6582 23.9185 11.6582C21.5098 11.6582 19.5562 13.6118 19.5562 16.0205C19.5562 16.3624 19.5949 16.6952 19.6698 17.0147C16.0444 16.8328 12.8298 15.0962 10.6781 12.4562C10.3027 13.1004 10.0874 13.8502 10.0874 14.6496C10.0874 16.1626 10.858 17.4984 12.0279 18.2805C11.3132 18.258 10.6401 18.0619 10.0522 17.7343C10.0519 17.7528 10.0519 17.7714 10.0519 17.7896C10.0519 19.9032 11.5562 21.6661 13.5514 22.0666C13.1857 22.1668 12.7996 22.2198 12.4024 22.2198C12.1206 22.2198 11.8477 22.1928 11.5816 22.1421C12.1366 23.8748 13.7472 25.136 15.6566 25.1715C14.1633 26.3417 12.2826 27.0388 10.2383 27.0388C9.88695 27.0388 9.53886 27.0184 9.19824 26.9777C11.1277 28.2159 13.4213 28.9378 15.8846 28.9378C23.9084 28.9378 28.2964 22.2908 28.2964 16.5257C28.2964 16.3367 28.2921 16.1483 28.2837 15.9616C29.1367 15.3467 29.8761 14.5786 30.4607 13.7038Z" fill="#F0EFEA"/>
</g>
</svg>

<svg width="37" height="38" fill="none" xmlns="http://www.w3.org/2000/svg"><path d="M18.258 37.13c10.079 0 18.25-8.17 18.25-18.25S28.337.63 18.258.63C8.178.63.008 8.8.008 18.88s8.17 18.25 18.25 18.25Z" fill="#015F26"/><path d="M30.46 13.704a8.7 8.7 0 0 1-2.505.686 4.374 4.374 0 0 0 1.919-2.413c-.843.5-1.777.863-2.77 1.058a4.363 4.363 0 0 0-7.434 3.98 12.383 12.383 0 0 1-8.992-4.559 4.362 4.362 0 0 0 1.35 5.824 4.332 4.332 0 0 1-1.976-.546v.056a4.365 4.365 0 0 0 3.5 4.277 4.347 4.347 0 0 1-1.97.075 4.367 4.367 0 0 0 4.075 3.03 8.753 8.753 0 0 1-5.419 1.867c-.351 0-.7-.02-1.04-.061a12.339 12.339 0 0 0 6.687 1.96c8.023 0 12.411-6.647 12.411-12.412 0-.19-.004-.378-.012-.564a8.847 8.847 0 0 0 2.177-2.258Z" fill="#F0EFEA"/></svg>
